icon-themes/breeze_svg/cmd/lc_searchdialog.svg

<svg viewBox="0 0 24 24" xmlns="http://www.w3.org/2000/svg"><path d="m5 18c-.5523 0-1 .4477-1 1s.4477 1 1 1 1-.4477 1-1-.4477-1-1-1zm4 0c-.5523 0-1 .4477-1 1s.4477 1 1 1c.5522999 0 1-.4477 1-1s-.4477001-1-1-1zm4 0c-.5523 0-1 .4477-1 1s.4477 1 1 1 1-.4477 1-1-.4477-1-1-1z" fill="#f47750"/><path d="m10 4c-3.3240048 0-6 2.6759952-6 6 0 3.324005 2.6759952 6 6 6 1.481205 0 2.830584-.534682 3.875-1.417969l5.417969 5.417969.707031-.707031-5.417969-5.417969c.883287-1.044416 1.417969-2.393795 1.417969-3.875 0-3.3240048-2.675995-6-6-6zm0 1c2.770005 0 5 2.2299952 5 5 0 2.770005-2.229995 5-5 5-2.7700048 0-5-2.229995-5-5 0-2.7700048 2.2299952-5 5-5z" fill="#4d4d4d"/></svg>

<svg xmlns="http://www.w3.org/2000/svg" viewBox="0 0 24 24">
 <path 
     style="fill:#f47750" 
     d="M 5 18 C 4.4477 18 4 18.4477 4 19 C 4 19.5523 4.4477 20 5 20 C 5.5523 20 6 19.5523 6 19 C 6 18.4477 5.5523 18 5 18 z M 9 18 C 8.4477 18 8 18.4477 8 19 C 8 19.5523 8.4477 20 9 20 C 9.5522999 20 10 19.5523 10 19 C 10 18.4477 9.5522999 18 9 18 z M 13 18 C 12.4477 18 12 18.4477 12 19 C 12 19.5523 12.4477 20 13 20 C 13.5523 20 14 19.5523 14 19 C 14 18.4477 13.5523 18 13 18 z "
     />
 <path 
     style="fill:#4d4d4d" 
     d="M 10 4 C 6.6759952 4 4 6.6759952 4 10 C 4 13.324005 6.6759952 16 10 16 C 11.481205 16 12.830584 15.465318 13.875 14.582031 L 19.292969 20 L 20 19.292969 L 14.582031 13.875 C 15.465318 12.830584 16 11.481205 16 10 C 16 6.6759952 13.324005 4 10 4 z M 10 5 C 12.770005 5 15 7.2299952 15 10 C 15 12.770005 12.770005 15 10 15 C 7.2299952 15 5 12.770005 5 10 C 5 7.2299952 7.2299952 5 10 5 z "
     />
 </svg>
